X: 10691
T: Down The Road To Galloway
R: polka
M: 2/4
K: Amixolydian
|:A2 A/B/c/d/|ea c2|ef/e/ dB|fe c/d/e|
A2 A/B/c/d/|ea c2|ef/e/ dB|1 A2 Ae:|2 A2 Ac/d/||
ea df|ea c2|ef/e/ dB|fe c/d/e|
ea df|ea c2|ef/e/ dB|A2 Ac/d/|
ea g>a|f/e/d e2|ef/e/ dB|fe c/d/e|
ea ga|f/e/d e2|ef/e/ dB|A2 Ae||

